X:215
T: Wallfahrtslied
N: A0568A
O: Europa, Mitteleuropa, Deutschland
N: H. Finck 1536 No. 2
R: Romanze, Ballade, Lied, religioeses Lied
M: 2/1
L: 1/2
K: G
G | G2G2 | G2G2 | G2_B2 | c4
d2dd | c2GG | A2_B2 | c4
d2d2 | c2G2 | A2G2 | =F4
A2_B2 | c4 | _B2A2 | _B4
A2G2 | A2G2 | G2=F2 | G2A2
=F2G2 | G4
G2_B2 | c2z2 | G2_B2 | c2z2
d3d | c2G2 | A2G2 | =F4
A2_B2 | c4 | _B2A2 | _B4
A2G2 | _B2A2 | G2=F2 | G2A2
=F2GA | _B2c2 | A4 | G3

